apps/web/public/icons/dropdown/profile.svg

<svg width="18" height="22" viewBox="0 0 18 22" fill="none" xmlns="http://www.w3.org/2000/svg">
<path d="M9 0C7.80653 0 6.66193 0.46357 5.81802 1.28873C4.97411 2.11389 4.5 3.23305 4.5 4.4C4.5 5.56695 4.97411 6.68611 5.81802 7.51127C6.66193 8.33643 7.80653 8.8 9 8.8C10.1935 8.8 11.3381 8.33643 12.182 7.51127C13.0259 6.68611 13.5 5.56695 13.5 4.4C13.5 3.23305 13.0259 2.11389 12.182 1.28873C11.3381 0.46357 10.1935 0 9 0ZM6.75 4.4C6.75 3.81652 6.98705 3.25695 7.40901 2.84437C7.83097 2.43179 8.40326 2.2 9 2.2C9.59674 2.2 10.169 2.43179 10.591 2.84437C11.0129 3.25695 11.25 3.81652 11.25 4.4C11.25 4.98348 11.0129 5.54306 10.591 5.95564C10.169 6.36822 9.59674 6.6 9 6.6C8.40326 6.6 7.83097 6.36822 7.40901 5.95564C6.98705 5.54306 6.75 4.98348 6.75 4.4ZM14.625 11H3.375C2.47989 11 1.62145 11.3477 0.988515 11.9665C0.355579 12.5854 0 13.4248 0 14.3C0 16.7552 1.03275 18.722 2.727 20.053C4.39425 21.362 6.63075 22 9 22C11.3693 22 13.6058 21.362 15.273 20.053C16.965 18.722 18 16.7552 18 14.3C18 13.4248 17.6444 12.5854 17.0115 11.9665C16.3786 11.3477 15.5201 11 14.625 11ZM3.375 13.2H14.625C14.9234 13.2 15.2095 13.3159 15.4205 13.5222C15.6315 13.7285 15.75 14.0083 15.75 14.3C15.75 16.0974 15.0187 17.4306 13.8645 18.337C12.681 19.2654 10.98 19.8 9 19.8C7.02 19.8 5.319 19.2654 4.1355 18.337C2.98125 17.4306 2.25 16.0974 2.25 14.3C2.25 14.0083 2.36853 13.7285 2.5795 13.5222C2.79048 13.3159 3.07663 13.2 3.375 13.2Z" fill="#DFDFDF"/>
</svg>

<svg xmlns="http://www.w3.org/2000/svg" width="18" height="22" fill="none" viewBox="0 0 18 22"><path fill="#dfdfdf" d="M9 0a4.55 4.55 0 0 0-3.182 1.289A4.35 4.35 0 0 0 4.5 4.4c0 1.167.474 2.286 1.318 3.111A4.55 4.55 0 0 0 9 8.8a4.55 4.55 0 0 0 3.182-1.289A4.35 4.35 0 0 0 13.5 4.4a4.35 4.35 0 0 0-1.318-3.111A4.55 4.55 0 0 0 9 0M6.75 4.4c0-.583.237-1.143.659-1.556A2.28 2.28 0 0 1 9 2.2c.597 0 1.169.232 1.591.644s.659.973.659 1.556-.237 1.143-.659 1.556A2.28 2.28 0 0 1 9 6.6a2.28 2.28 0 0 1-1.591-.644A2.17 2.17 0 0 1 6.75 4.4m7.875 6.6H3.375c-.895 0-1.754.348-2.386.966A3.26 3.26 0 0 0 0 14.3c0 2.455 1.033 4.422 2.727 5.753C4.394 21.362 6.631 22 9 22c2.37 0 4.606-.638 6.273-1.947C16.965 18.722 18 16.755 18 14.3c0-.875-.356-1.715-.988-2.334A3.42 3.42 0 0 0 14.625 11m-11.25 2.2h11.25c.298 0 .585.116.796.322.21.207.329.486.329.778 0 1.797-.731 3.13-1.886 4.037C12.682 19.265 10.98 19.8 9 19.8s-3.681-.535-4.864-1.463C2.98 17.431 2.25 16.097 2.25 14.3c0-.292.119-.572.33-.778.21-.206.497-.322.795-.322"/></svg>
